X: 1
T: Storpolska efter Bleck\aa
T: Orsa Storpolska
C: efter G\"ossa Anders Andersson
R: polska
S: handout for Bruce Sagan's scanfolk session 2021-1-11
S: several youtube versions of the tune on fiddles, flute, clarinet, and guitar.
Z: 2021 John Chambers <jc:trillian.mit.edu>
M: 3/4
L: 1/16
K: Ddor	% or Am+Dm
|:\
{a}c'4 a6 (e2 | f2){gf}e2 d2e2 {^cB}^c4 | d3e .f.e.f.g a2_b2 |1 ((3{ga}g^fg) a4 [e4e4] :|2 ((3{ga}g^fg) a8 || [E4A,4] [A8E8] |
[|\
({e}f{gf}efg) a2b2 a3{ba}g | (e2f2) .g.a.g.e f3{gf}d | (^c2d2) (e2fe) {de}d3=c | A3^c (BGB2) [A4A,4] |
({e}f{gf}efg) a2b2 a3{ba}g | (e2f2) .g.a.g.e f3{gf}d | (^c2d2) e2a2 (^fdf2) | e2^c2 [d8D8] |]
|: e4 A8 | ({FG}F2{GF}E2) D2E2 [E4C4] | {C}D2E2 .F.E.F.G A2B2 | ({^GA}G^FG2) A8 :| [E4A,4] [A8E8] |
({e}fefg) a2b2 a3{ba}g | e2f2 .g.a.g.e f3d | ^c2d2 e2a2 (^fdf2) | e2^c2 [d8D8] |]
